X:1
T:Choix de chansons. Tome 1
T:La Dormeuse
T:La Dormeuse
T:Jean Benjamin de La Borde
C:Jean Benjamin de La Borde
Z:Jean Benjamin de La Borde
%%score 1 { ( 2 5 ) | ( 3 4 ) }
L:1/8
Q:1/4=217
M:2/2
K:Bb
V:1 treble nm="Ténor" snm="T."
V:2 treble nm="Clavecin" snm="Cla."
V:5 treble 
V:3 bass 
V:4 bass 
V:1
S"^Allegretto" F6 F2 | !stemless!F8- | !stemless!F8 | A6 c2 | !stemless!B8 | c6 e2 | %6
w: Doux re-|pos-|_|vous ré-|gnez|sur l'ai-|
 (d3 e/d/) c2 c2 | !stemless!f8 | f4 (ed) (cB) | c4 e4 | d4{/d} c4 | !stemless!f8- | f4 (ed) (cB) | %13
w: ma- * * ble Syl-|vi-|e ses * yeux *|sont fer-|més au|jour-|_ com- * me *|
 c4 e4 | d6{/d} c2 | !stemless!B8 | z8 | F6 F2 | !stemless!F8- | !stemless!F8 | A6 c2 | %21
w: son cœur|à l'a-|mour||pei- gnez|lui-|_|S'il se|
 !stemless!B8 | c6 e2 | (d3 e/d/) c2 c2 | !stemless!f8 | f4 (ed) (cB) | c4 e4 | d4{/d} c4 | %28
w: peut|le mal-|heur * * de ma|vi-|e qu'un * ins- *|tant au|moins son|
 !stemless!f8- | f4 (ed) (cB) | c4 e4 | d6{/d} c2 | !stemless!B8 | z8!fine! || d6 (cB) | %35
w: cœur-|_ soit * sen- *|sible à|ma dou-|leur.||Tant de *|
{/B} c6 (cd) | e4 e4 |{/f} e4 d2 z2 | =e6 (dc) | f6 f2 | g4 a4 | f4{/f} =e2 z2 | !stemless!B8- | %43
w: fois ai- *|ma- bles|Son- ges,|Vous pei- *|gnez de|doux men-|son- ges|hé-|
 !stemless!B8 | !stemless!A8- | !stemless!A8 | !stemless!B8- | !stemless!B8 | !stemless!A8- | %49
w: _|las!-|_|hé-|_|las!-|
 !stemless!A8 | d4 (f=e) (gf) | !stemless!c8- | c4 (BA) (GF) | G4 A3 B | A4{/A} G4 | %55
w: _|un seul * ins- *|tant|Con- so- * lez *|le plus ten-|dre a-|
{/G} !stemless!A8 | d4 (f=e) (gf) | !stemless!c8- | c4 (BA) (G^F) | !stemless!G8- | G4 A3 B | %61
w: mant|un seul * ins- *|tant-|_ Con- * so- *|lez-|_ le plus|
 (!stemless!A8 | T!stemless!G8-) | TG6 F2 | !stemless!F8 | z8 | z8!D.S.! |] %67
w: ten-|_|\_dre a-|mant.|||
V:2
 z/[I:staff +1] B,/[I:staff -1]D/F/ B/F/D/[I:staff +1]B,/[I:staff -1] d/F/D/[I:staff +1]B,/[I:staff -1] !//![DFB]2 | %1
 z/[I:staff +1] A,/[I:staff -1]C/E/ A/E/C/[I:staff +1]A,/[I:staff -1] !//![CEc]2 !//![CEA]2 | %2
 z/[I:staff +1] B,/[I:staff -1]D/F/ B/F/D/[I:staff +1]B,/[I:staff -1] !//![DFd]2 !//![DFB]2 | %3
 z/[I:staff +1] A,/[I:staff -1]C/E/ A/E/C/[I:staff +1]A,/[I:staff -1] !//![CEc]2 !//![CEA]2 | %4
 z/[I:staff +1] B,/[I:staff -1]D/F/ B/F/D/[I:staff +1]B,/[I:staff -1] !//![DFd]2 !//![DFB]2 | %5
 z/[I:staff +1] C/[I:staff -1]E/G/ c/G/E/C/ !//![CEGe]2 !//![CEGc]2 | %6
 z/[I:staff +1] B,/[I:staff -1]D/F/ B/F/D/[I:staff +1]B,/[I:staff -1] z/[I:staff +1] A,/C/[I:staff -1]E/ !//![EA]2 | %7
 z/[I:staff +1] B,/[I:staff -1]D/F/ B/F/D/[I:staff +1]B,/[I:staff -1] !//![DFd]2 !//![DFB]2 | %8
 z/[I:staff +1] B,/[I:staff -1]D/F/ B/F/D/[I:staff +1]B,/[I:staff -1] !//![DFd]2 !//![DFB]2 | %9
 z/ C/E/G/ c/G/E/C/ !//![CEGe]2 !//![CEGc]2 | %10
 z/[I:staff +1] B,/[I:staff -1]D/F/ B/F/D/[I:staff +1]B,/[I:staff -1] z/[I:staff +1] A,/[I:staff -1]C/E/ !//![CEA]2 | %11
 z/[I:staff +1] B,/[I:staff -1]D/F/ B/F/D/[I:staff +1]B,/[I:staff -1] !//![DFd]2 !//![DFB]2 | %12
 z/[I:staff +1] B,/[I:staff -1]D/F/ B/F/D/[I:staff +1]B,/[I:staff -1] !//![DFd]2 !//![DFB]2 | %13
 z/[I:staff +1] C/[I:staff -1]E/G/ c/G/E/[I:staff +1]C/[I:staff -1] !//![EGe]2 !//![EGc]2 | %14
 z/[I:staff +1] B,/[I:staff -1]D/F/ B/F/D/[I:staff +1]B,/[I:staff -1] z/[I:staff +1] A,/[I:staff -1]C/E/ !//![CEA]2 | %15
 z/[I:staff +1] B,/[I:staff -1]D/F/ B/F/D/[I:staff +1]B,/[I:staff -1] !//![DFd]2 !//![DFB]2 | %16
 z/[I:staff +1] B,/[I:staff -1]D/F/ B/F/D/[I:staff +1]B,/[I:staff -1] !//![DFd]2 !//![DFB]2 | %17
 z/[I:staff +1] B,/[I:staff -1]D/F/ B/F/D/[I:staff +1]B,/[I:staff -1] !//![DFd]2 !//![DFB]2 | %18
 z/[I:staff +1] A,/[I:staff -1]C/E/ A/E/C/[I:staff +1]A,/[I:staff -1] !//![CEc]2 !//![CEA]2 | %19
 z/[I:staff +1] B,/[I:staff -1]D/F/ B/F/D/[I:staff +1]B,/[I:staff -1] !//![DFd]2 !//![DFB]2 | %20
 z/[I:staff +1] A,/C/[I:staff -1]E/ A/E/[I:staff +1]C/A,/[I:staff -1] !//![Ec]2 !//![EA]2 | %21
 z/[I:staff +1] B,/[I:staff -1]D/F/ B/F/D/[I:staff +1]B,/[I:staff -1] !//![DFd]2 !//![DFB]2 | %22
 z/[I:staff +1] C/[I:staff -1]E/G/ c/G/E/[I:staff +1]C/[I:staff -1] !//![EGe]2 !//![EGc]2 | %23
 z/[I:staff +1] B,/[I:staff -1]D/F/ B/F/D/[I:staff +1]B,/[I:staff -1] z/[I:staff +1] A,/C/[I:staff -1]E/ !//![EA]2 | %24
 z/[I:staff +1] B,/[I:staff -1]D/F/ B/F/D/[I:staff +1]B,/[I:staff -1] !//![DFd]2 !//![DFB]2 | %25
 z/[I:staff +1] B,/[I:staff -1]D/F/ B/F/D/[I:staff +1]B,/[I:staff -1] !//![DFd]2 !//![DFB]2 | %26
 z/[I:staff +1] C/[I:staff -1]E/G/ c/G/E/[I:staff +1]C/[I:staff -1] !//![EGe]2 !//![EGc]2 | %27
 z/[I:staff +1] B,/[I:staff -1]D/F/ B/F/D/[I:staff +1]B,/[I:staff -1] z/[I:staff +1] A,/C/[I:staff -1]E/ !//![EA]2 | %28
 z/[I:staff +1] B,/[I:staff -1]D/F/ B/F/D/[I:staff +1]B,/[I:staff -1] d/F/D/[I:staff +1]B,/[I:staff -1] B/F/D/[I:staff +1]B,/ | %29
[I:staff -1] z/[I:staff +1] B,/[I:staff -1]D/F/ B/F/D/[I:staff +1]B,/[I:staff -1] !//![DFd]2 !//![DFB]2 | %30
 z/[I:staff +1] C/[I:staff -1]E/G/ c/G/E/[I:staff +1]C/[I:staff -1] !//![EGe]2 !//![EGc]2 | %31
 z/[I:staff +1] B,/[I:staff -1]D/F/ B/F/D/[I:staff +1]B,/[I:staff -1] z/[I:staff +1] A,/C/[I:staff -1]E/ !//![EA]2 | %32
 z/[I:staff +1] E,/[I:staff -1]D/F/ B/F/D/[I:staff +1]E,/[I:staff -1] !//![DFd]2 !//![DFB]2 | z8 || %34
 z/ B/F/D/ z/ B/F/D/ z/ B/F/D/ z/ B/F/D/ | z/ c/F/E/ z/ c/F/E/ z/ c/F/E/ z/ c/F/E/ | %36
 z/ c/F/E/ z/ c/F/E/ z/ c/F/E/ z/ c/F/E/ | z/ B/F/D/ z/ B/F/D/ z/ B/F/D/ z/ B/F/D/ | %38
 z/ c/G/=E/ z/ c/G/E/ z/ c/G/E/ z/ c/G/E/ | z/ c/A/F/ z/ c/A/F/ z/ c/A/F/ z/ c/A/F/ | %40
 z/ c/G/=E/ z/ c/G/E/ z/ c/A/F/ z/ c/A/F/ | [FAc]4 [=EGc]2 z2 | %42
 z/ B/G/=E/ z/ B/G/E/ z/ B/G/E/ z/ B/G/E/ | z/ B/G/=E/ z/ B/G/E/ z/ B/G/E/ z/ B/G/E/ | %44
 z/ c/A/F/ z/ c/A/F/ z/ c/A/F/ z/ c/A/F/ | z/ c/A/F/ z/ c/A/F/ z/ c/A/F/ z/ c/A/F/ | %46
 z/ B/G/=E/ z/ B/G/E/ z/ B/G/E/ z/ B/G/E/ | z/ B/G/=E/ z/ B/G/E/ z/ B/G/E/ z/ B/G/E/ | %48
 z/ c/A/F/ z/ c/A/F/ z/ c/A/F/ z/ c/A/F/ | z/ c/A/F/ z/ c/A/F/ z/ c/A/F/ z/ c/A/F/ | %50
 z/ d/B/F/ z/ d/B/F/ z/ d/B/F/ z/ d/B/F/ | z/ c/A/F/ z/ c/A/F/ z/ c/A/F/ z/ c/A/F/ | %52
 z/ c/A/F/ z/ c/A/F/ z/ c/A/F/ z/ c/A/F/ | z/ d/B/G/ z/ d/B/G/ z/ d/B/G/ z/ d/B/G/ | %54
 z/ c/A/F/ z/ B/G/E/ z/ c/A/F/ z/ B/G/E/ | z/ c/A/F/ z/ c/A/F/ z/ c/A/F/ z/ c/A/F/ | %56
 z/ d/B/F/ z/ d/B/F/ z/ d/B/F/ z/ d/B/F/ | z/ c/A/F/ z/ c/A/F/ z/ c/A/F/ z/ c/A/F/ | %58
 z/ c/A/F/ z/ c/A/F/ z/ c/A/F/ z/ c/A/F/ | z/ d/B/G/ z/ d/B/G/ z/ d/B/G/ z/ d/B/G/ | %60
 z/ d/B/G/ z/ d/B/G/ z/ d/B/G/ z/ d/B/G/ | z/ c/A/F/ z/ c/A/F/ z/ c/A/F/ z/ c/A/F/ | %62
 z/ B/G/=E/ z/ B/G/E/ z/ B/G/E/ z/ B/G/E/ | z/ B/G/=E/ z/ B/G/E/ z/ B/G/E/ z/ B/G/E/ | %64
 z/ c/A/F/ z/ d/B/G/ z/ c/A/F/ z/ B/G/=E/ | %65
 (5:4:2z/ !//![FAc]2 (5:4:2z/ !//![GBd]2 (5:4:2z/ !//![FAc]2 (5:4:2z/ !//![=EGB]2 | !stemless!F8 |] %67
V:3
 B,,4 z4 | C,4 z4 | D,4 z4 | E,4 z4 | D,4 z4 | E,4 z4 | F,4 E,4 | D,4 z4 | D,4 z4 | E,4 z4 | %10
 F,4 E,4 | D,4 z4 | D,4 z4 | E,4 z4 | F,4 F,,4 | B,,4 z4 | B,,4 z4 | B,,4 z4 | C,4 z4 | D,4 z4 | %20
 E,4 z4 | D,4 z4 | E,4 z4 | F,4 E,4 | D,4 !//!B,2 !//!B,2 | D,4 !//!B,2 !//!B,2 | %26
 E,4 !//!C2 !//!C2 | F,4 E,4 | D,4 z4 | D,4 z4 | E,4 z4 | F,4 F,,4 | B,,4 z4 | !stemless!B,,8 || %34
 B,2[I:staff -1] F2 D2[I:staff +1] B,2 | A,2 C2 A,2 F,2 | A,2 C2 A,2 F,2 | %37
 B,2[I:staff -1] F2 D2[I:staff +1] B,2 | B,2 B,2 B,2 B,2 | A,2 A,2 A,2 A,2 | G,2 G,2 F,2 F,2 | %41
 C,4 C,,2 z2 | C2 C2 C2 C2 | C2 C2 C2 C2 | C2 C2 C2 C2 | C2 C2 C2 C2 | C2 C2 C2 C2 | C2 C2 C2 C2 | %48
 C2 C2 C2 C2 | C2 C2 C2 C2 | B,2 B,2 B,2 B,2 | A,2 A,2 A,2 A,2 | A,2 A,2 A,2 A,2 | %53
 B,2 B,2 B,2 B,2 | C2 C2 C,2 C,2 | F,2 F,2 F,2 F,2 | B,2 B,2 B,2 B,2 | A,2 A,2 A,2 A,2 | %58
 A,2 A,2 A,2 A,2 | B,2 B,2 B,2 B,2 | B,2 B,2 B,2 B,2 | C2 C2 C2 C2 | C2 C2 C2 C2 | C2 C2 C2 C2 | %64
 F,2 F,2 F,2 F,2 | F,2 F,2 F,2 F,2 | !stemless!F,8 |] %67
V:4
 x6 !//!B,2 | x4 !//!A,2 !//!A,2 | x4 !//!B,2 !//!B,2 | x4 !//!A,2 !//!A,2 | x4 !//!B,2 !//!B,2 | %5
 x8 | x6 !//![A,C]2 | x4 !//!B,2 !//!B,2 | x4 !//!B,2 !//!B,2 | x8 | x6 !//!A,2 | %11
 x4 !//!B,2 !//!B,2 | x4 !//!B,2 !//!B,2 | x4 !//!C2 !//!C2 | x6 !//!A,2 | x4 !//!B,2 !//!B,2 | %16
 x4 !//!B,2 !//!B,2 | x4 !//!B,2 !//!B,2 | x4 !//!A,2 !//!A,2 | x4 !//!B,2 !//!B,2 | %20
 x4 !//![A,C]2 !//![A,C]2 | x4 !//!B,2 !//!B,2 | x4 !//!C2 !//!C2 | x6 !//![A,C]2 | x8 | x8 | x8 | %27
 x6 !//![A,C]2 | x8 | x4 !//!B,2 !//!B,2 | x4 !//!C2 !//!C2 | x6 !//![A,C]2 | x4 !//!B,2 !//!B,2 | %33
 x8 || x8 | x8 | x8 | x8 | x8 | x8 | x8 | x8 | x8 | x8 | x8 | x8 | x8 | x8 | x8 | x8 | x8 | x8 | %52
 x8 | x8 | x8 | x8 | x8 | x8 | x8 | x8 | x8 | x8 | x8 | x8 | x8 | x8 | x8 |] %67
V:5
 x8 | x8 | x8 | x8 | x8 | x8 | x8 | x8 | x8 | x8 | x8 | x8 | x8 | x8 | x8 | x8 | x8 | x8 | x8 | %19
 x8 | x8 | x8 | x8 | x8 | x8 | x8 | x8 | x8 | x8 | x8 | x8 | x8 | x8 | x8 || x8 | x8 | x8 | x8 | %38
 x8 | x8 | x8 | x8 | =e2 g2 b2 g2 | =e2 g2 f2 =e2 | f2 a2 c'2 a2 | f2 a2 g2 f2 | =e2 g2 b2 g2 | %47
 =e2 g2 f2 e2 | f2 a2 c'2 a2 | f2 a2 g2 f2 | x8 | x8 | x8 | x8 | x8 | x8 | x8 | x8 | x8 | x8 | x8 | %61
 x8 | x8 | x8 | x8 | x8 | x8 |] %67

